X:1
T:Title
%%score ( 1 2 ) { ( 3 5 ) | 4 }
L:1/8
M:4/4
K:F
V:1 treble nm="Grand Piano, Piano"
V:2 treble 
V:3 bass nm="Grand Piano, Piano"
V:5 bass 
V:4 bass 
V:1
 z4 z2[Q:1/4=100] C2 | [A,CA]2 [A,^CA]2 [A,DA]2 [A,CA]2 | [A,A]2- [A,^CA]2 [A,DA]2 [A,CA]2 | %3
w: 1.~Stand~|up,~ stand~ up~ for~|Je * sus,~ Ye~|
 [A,CA]2 [CF]2 [B,CE]2 [A,CF]2 |[M:3/4] B2- [CFB-]2 [CEB]2 |[M:1/4] C2 | %6
w: sol diers~ of~ the~|cross;~ * *|Lift~|
[M:4/4] [CEB]2 [^CEB]2 [DEB]2 [CEB]2 | [EB]4 z4 | [CEB]2 [CEG]2 [CF]2 [CEG]2 |[M:3/4] [CFA]6 | %10
w: high~ His~ roy al~|ban|must~ not~ suf fer~|loss:~|
[M:1/4] [Cc]2 |[M:4/4] [CFAc]2 [CFA]2 [D^Fd]2 [DA]2 | [DAc]4 [DGB]2 [^CFB]2 | %13
w: From~|vict' ry~ un to~|vict' ry~ His~|
 [CEB]2 [CEG]2 [CEc]2 [CEG]2 |[M:3/4] [CFA]6 |[M:1/4] [A,A]2 |[M:4/4] A2 z2 z4 | A4 z4 | %18
w: ar my~ shall~ He~|lead,~|Till~|ev'|van|
 [^CA]2 E2 [DF]2 [DG]2 |[M:3/4] [^CEA]4 [=CEBc]2 |[M:1/4] C2 |[M:4/4] [FA]6 [_EA]2 | %22
w: Christ~ is~ Lord~ in|deed.~ *|||
 [Ec]2 [EB]2 z2 C2 | [EG]2 [_E^F]2 [=EG]2 [Ed]2 |[M:3/4] c6 |[M:1/4] [Gc]2 | %26
w: ||||
[M:4/4] [^Fd]2 [FA]2 [GB]2 [GB]2 | [Gc]2 [EG]2 [FA]2 [_EA]2 | [DA]2 [DG]2 z2 [Fd]2 | [Fc]4 F4 | %30
w: ||||
 [FA]6 [EG]2 |[M:3/4] [CF]6 |] %32
w: ||
V:2
 x8 | x8 | C2 z2 z4 | x8 |[M:3/4] [CG]2 z2 z2 |[M:1/4] x2 |[M:4/4] x8 | C2 ^C2 [DEB]2 [CEB]2 | x8 | %9
w: |||||||* * * It~||
[M:3/4] x6 |[M:1/4] x2 |[M:4/4] x8 | x8 | x8 |[M:3/4] x6 |[M:1/4] x2 | %16
w: |||||||
[M:4/4] ^C2- [CE]2 [DF]2 [DG]2 | ^C2 D2 A,2 [A,A]2 | x8 |[M:3/4] x6 |[M:1/4] x2 |[M:4/4] x8 | x8 | %23
w: * * * is~|* * * And~||||||
 x8 |[M:3/4] F2 E2 F2 |[M:1/4] x2 |[M:4/4] x8 | x8 | x8 | x8 | x8 |[M:3/4] x6 |] %32
w: |||||||||
V:3
 z4 z2 C,2 | C,2 ^C,2 D,2 C,2 | C,2 ^C,2 D,2 C,2 | C,2 F,2 G,2 F,2 |[M:3/4] E,2 D,2 C,2 | %5
[M:1/4] C,2 |[M:4/4] C,4 G,,4 | C,4 G,,4 | C,2 B,2 A,2 G,2 |[M:3/4] F,2 C,2 F,2 |[M:1/4] z2 | %11
[M:4/4] F,2 _E,2 D,2 ^F,2 | G,2 D,2 G,2 G,2 | C,4 C,4 |[M:3/4] F,2 C,2 F,2 |[M:1/4] z2 | %16
[M:4/4] E,2 A,2 A,2 B,2 | A,4 E,2 z2 | E,2 A,2 A,2 B,2 |[M:3/4] E,2 E,2 G,2 |[M:1/4][K:treble] C2 | %21
[M:4/4] C2 C2 C2 C2 | C2 C2 z2[K:bass] C2 | B,2 A,2 B,2 C2 |[M:3/4] C2 B,2 A,2 |[M:1/4] A,2 | %26
[M:4/4] A,2 D2 D2 ^C2 | C4 z4 | B,2 B,2 z2 _A,2 | A,4 A,4 | C6 B,2 |[M:3/4] A,6 |] %32
V:4
 z8 | F,,4 F,,4 | F,,4 F,,4 | F,,2 A,,2 G,,2 F,,2 |[M:3/4] E,,2 D,,2 C,,2 |[M:1/4] z2 | %6
[M:4/4] C,,4 z4 | C,,4 z4 | C,,2 B,,2 A,,2 G,,2 |[M:3/4] F,,2 C,,2 F,,2 |[M:1/4] z2 | %11
[M:4/4] F,,2 _E,,2 D,,2 ^F,,2 | G,,2 z2 G,,2 G,,2 | C,,4 C,,4 |[M:3/4] F,,2 C,,2 F,,2 |[M:1/4] z2 | %16
[M:4/4] A,,4 D,2 B,,2 | A,,2 =B,,2 ^C,2 z2 | A,,2 ^C,2 D,2 B,,2 |[M:3/4] A,,4 G,,2 |[M:1/4] C,2 | %21
[M:4/4] F,2 C,2 F,2 ^F,2 | G,2 G,2 z2 C,2 | C,2 C,2 C,2 B,2 |[M:3/4] A,2 G,2 F,2 |[M:1/4] _E,2 | %26
[M:4/4] D,2 D,2 G,2 F,2 | E,2 z2 F,2 F,2 | B,,2 B,,2 z2 =B,,2 | C,4 D,4 | C,6 C,2 |[M:3/4] F,,6 |] %32
V:5
 x8 | x8 | x8 | x8 |[M:3/4] x6 |[M:1/4] x2 |[M:4/4] x8 | x8 | x8 |[M:3/4] x6 |[M:1/4] x2 | %11
[M:4/4] x8 | x8 | x8 |[M:3/4] x6 |[M:1/4] x2 |[M:4/4] x8 | x8 | x8 |[M:3/4] x6 | %20
[M:1/4][K:treble] x2 |[M:4/4] x8 | x6[K:bass] x2 | x8 |[M:3/4] x6 |[M:1/4] x2 |[M:4/4] x8 | %27
 z2 C,2 C2 C2 | x8 | x8 | x8 |[M:3/4] x6 |] %32

